common/src/main/resources/icons/debugger/memoryView/toolWindowEnabled.svg

<svg xmlns="http://www.w3.org/2000/svg" width="16" height="16" fill="#A1887F" data-big="true" viewBox="0 0 24 24"><path d="m12 16 7.36-5.73L21 9l-9-7-9 7 1.63 1.27M12 18.54l-7.38-5.73L3 14.07l9 7 9-7-1.63-1.27z"/></svg>

<!--
  - The MIT License (MIT)
  -
  - Copyright (c) 2015-2024 Elior "Mallowigi" Boukhobza
  -
  - Permission is hereby granted, free of charge, to any person obtaining a copy
  - of this software and associated documentation files (the "Software"), to deal
  - in the Software without restriction, including without limitation the rights
  - to use, copy, modify, merge, publish, distribute, sublicense, and/or sell
  - copies of the Software, and to permit persons to whom the Software is
  - furnished to do so, subject to the following conditions:
  -
  - The above copyright notice and this permission notice shall be included in all
  - copies or substantial portions of the Software.
  -
  - THE SOFTWARE IS PROVIDED "AS IS", WITHOUT WARRANTY OF ANY KIND, EXPRESS OR
  - IMPLIED, INCLUDING BUT NOT LIMITED TO THE WARRANTIES OF MERCHANTABILITY,
  - FITNESS FOR A PARTICULAR PURPOSE AND NONINFRINGEMENT. IN NO EVENT SHALL THE
  - AUTHORS OR COPYRIGHT HOLDERS BE LIABLE FOR ANY CLAIM, DAMAGES OR OTHER
  - LIABILITY, WHETHER IN AN ACTION OF CONTRACT, TORT OR OTHERWISE, ARISING FROM,
  - OUT OF OR IN CONNECTION WITH THE SOFTWARE OR THE USE OR OTHER DEALINGS IN THE
  - SOFTWARE.
  -->


<svg data-big="true" xmlns="http://www.w3.org/2000/svg" version="1.1" width="16px" height="16px" fill="#A1887F"
     viewBox="0 0 24 24">
  <path
    d="M12,16L19.36,10.27L21,9L12,2L3,9L4.63,10.27M12,18.54L4.62,12.81L3,14.07L12,21.07L21,14.07L19.37,12.8L12,18.54Z"/>
</svg>
